X:1
T:GB/7a/1 Isle of France Version 1 of 3
%%VWML:GB-7a-1-0
F:http://www.vwml.org/record/GB/7a/1
C:Transcribed by Simon Furey and Lewis Jones
L:1/8
M:3/2
I:linebreak $
K:D
DE | F2 A2 F4 B,3 C | D2 D2 D6 A2 | B2 c2 d4 c3 B | ABcA B6 A2 |$ B2 c2 d4 c3 A | ABcA B4 D3 E |
F2 dc B3 A B,3 C | D2 D2 D6 |]

